!!! OTL: Berkowitz70
!!! Chapter: 1
!!! Section: I
!!! Page: 19
!!! Mode: 
!!! Encoder: DJB
**kern
*staff1
*I"Piano
=1-
*clefF4
*k[b-]
*d:
*M4/4
8D\L
8D\J
8r
8E\
8D\L
8C#\
8D\
8E\J
=2
8F\L
8D\J
8r
8D\
8E\L
16F\L
16G\JJ
8A\L
8B-\J
=3
8.A\L
16G\Jk
8F\L
8D\J
8E\L
8F\
8G\
8A\J
=4
8.B-\L
16A\Jk
8G\L
8F\J
8E\L
8E\J
8r
8F\
=5
8D\L
8D\J
8r
8E\
8F\L
8G\
8A\
8B-\J
=6
!!linebreak:original
8A\L
8D\J
8r
16E\LL
16F\JJ
8G\L
8A\
8B-\
8A\J
=7
16G\LL
16F\
16E\
16D\JJ
8C#\L
16D\L
16E\JJ
4.F\
8G\
=8
4E\
8.D\L
16D\Jk
2D\
==
*-
